svgs/sharp-solid/file-lock.svg

<svg xmlns="http://www.w3.org/2000/svg" viewBox="0 0 576 512"><!--! Font Awesome Pro 6.6.0 by @fontawesome - https://fontawesome.com License - https://fontawesome.com/license (Commercial License) Copyright 2024 Fonticons, Inc. --><path d="M0 0L224 0l0 160 160 0 0 33.6c-19.8 20.2-32 47.9-32 78.4l0 15.7-32 0L320 512 0 512 0 0zM384 128l-128 0L256 0 384 128zm80 112c-17.7 0-32 14.3-32 32l0 48 64 0 0-48c0-17.7-14.3-32-32-32zm-80 32c0-44.2 35.8-80 80-80s80 35.8 80 80l0 48 32 0 0 192-224 0 0-192 32 0 0-48z"/></svg>

<svg xmlns="http://www.w3.org/2000/svg" viewBox="0 0 576 512"><!--! Font Awesome Pro 6.4.2 by @fontawesome - https://fontawesome.com License - https://fontawesome.com/license (Commercial License) Copyright 2023 Fonticons, Inc. --><path d="M0 0H224V160H384v33.6c-19.8 20.2-32 47.9-32 78.4v15.7H320L320 512H0V0zM384 128H256V0L384 128zm80 112c-17.7 0-32 14.3-32 32v48h64V272c0-17.7-14.3-32-32-32zm-80 32c0-44.2 35.8-80 80-80s80 35.8 80 80v48h32V512H352V320h32V272z"/></svg>
